docs/img/svgicons/topics/dna.svg

<svg width="800" height="800" fill="none" xmlns="http://www.w3.org/2000/svg"><path d="M633.334 700c0-11.233-.607-22.357-1.79-33.333m0 0H300m331.544 0c-5.214-48.304-21.63-93.767-46.947-133.334M166.667 100c0 11.234.606 22.357 1.79 33.333m0 0H500m-331.543 0c5.212 48.303 21.63 93.767 46.945 133.334M166.667 700c0-138.113 91.557-259.493 224.357-297.433l17.953-5.134c132.8-37.94 224.357-159.32 224.357-297.433M416.667 266.667H215.402m0 0c39.66 61.983 101.156 109.493 175.622 130.766l17.953 5.134c74.467 21.273 135.963 68.783 175.62 130.766m-201.263 0h201.263" stroke="#731C00" stroke-width="66.667" stroke-linecap="round" stroke-linejoin="round"/></svg>

<svg width="800" height="800" viewBox="0 0 800 800" fill="none" xmlns="http://www.w3.org/2000/svg">
<path d="M633.334 700C633.334 688.767 632.727 677.643 631.544 666.667M631.544 666.667H300M631.544 666.667C626.33 618.363 609.914 572.9 584.597 533.333M166.667 100C166.667 111.234 167.273 122.357 168.457 133.333M168.457 133.333H500M168.457 133.333C173.669 181.636 190.087 227.1 215.402 266.667M166.667 700C166.667 561.887 258.224 440.507 391.024 402.567L408.977 397.433C541.777 359.493 633.334 238.113 633.334 100M416.667 266.667H215.402M215.402 266.667C255.062 328.65 316.558 376.16 391.024 397.433L408.977 402.567C483.444 423.84 544.94 471.35 584.597 533.333M383.334 533.333H584.597" stroke="#731C00" stroke-width="66.6667" stroke-linecap="round" stroke-linejoin="round"/>
</svg>
